!!!!SEGMENT: pl-kk--kk-i-11--001-001_anonim-missa-o-admirabile-comercium-kyrie.krn
!!!id: 16xx:1232
!!!COM: Anonim
!!!OTL: Missa o Admirabile Comercium – Kyrie
!!!PDT:
!!!SMS-siglum: PL-Kk
!!!SMS-shelfmark: Kk.I.11
!!!NIFC-rismID: 1001154125
!!!URL-scan: http://repozytorium.nifc.pl/skany/pl-kk-nut--i-11
!!!ONB-nifc: UWAGA: części Mszy: 1. Kyrie, 2. Et in terra, 3. Patrem, 4. Sanctus, 5. Benedictus, 6. Agnus Dei. S (skan 0004-0008), T (0013-0016).
!!!SMS-variant:
!!!SMS-altvar:
**kern	**text	**kern	**text
*part2	*part2	*part1	*part1
*staff2	*staff2	*staff1	*staff1
*I"Tenore	*	*I"Canto	*
*I'T	*	*I'S	*
*clefC4	*	*clefG2	*
*k[]	*	*k[]	*
*M2/1	*	*M2/1	*
*met(c|)	*	*met(c|)	*
=1-	=1-	=1-	=1-
!LO:TX:a:t=g	!	!	!
1.G	Ky-	00dd	Ky-
!LO:TX:t=P:problem:kreska pseudotaktowa	!	!	!
2G/	-ri-	.	.
=2	=2-	=2-	=2-
!	!	!LO:TX:t=P:problem:kreska pseudotaktowa	!
2A\	-e	.	.
!LO:TX:t=P:problem:kreska pseudotaktowa	!	!	!
2B\	.	.	.
1A	e-	.	.
=3-	=3-	=3	=3-
1d	-ley-	0dd	-ri-
!LO:TX:t=P:problem:kreska pseudotaktowa	!	!	!
1A	.	.	.
=4	=4-	=4-	=4-
!LO:TX:t=P:problem:kreska pseudotaktowa	!	!LO:TX:t=P:problem:kreska pseudotaktowa	!
1B	-son	1dd	-e
0r	.	1.ee	e-
=5-	=5-	=5-	=5-
.	.	.	.
!	!	!LO:TX:t=P:problem:kreska pseudotaktowa	!
.	.	2dd\	.
2r	.	1dd	-lei-
*	*ij	*	*
!LO:TX:t=P:problem:kreska pseudotaktowa	!	!	!
2d\	Ky-	.	.
=6	=6-	=6-	=6-
2A/	-ri-	00dd	-ſon
2G/	-e	.	.
!LO:TX:t=P:problem:kreska pseudotaktowa	!	!	!
1d	e-	.	.
=7	=7-	=7-	=7-
!	!	!LO:TX:t=P:problem:kreska pseudotaktowa	!
2.d\	-ley-	.	.
4c\	.	.	.
4B\	.	.	.
4A\	.	.	.
!LO:TX:t=P:problem:kreska pseudotaktowa	!	!	!
2d\	-son	.	.
=8	=8-	=8	=8-
4.A\	Ky-	1r	.
8B\	-ri-	.	.
2c\	-e	.	.
2d\	e-	2r	.
*	*	*	*ij
!LO:TX:t=P:problem:kreska pseudotaktowa	!	!	!
2G/	.	1g/	Ky-
=9	=9-	=9-	=9-
1c	-ley-	.	.
!	!	!LO:TX:t=P:problem:kreska pseudotaktowa	!
.	.	2a/	-ri-
!LO:TX:t=P:problem:kreska pseudotaktowa	!	!LO:TX:t=P:problem:kreska pseudotaktowa	!
1B	-son	1b	-e
*	*Xij	*	*
=10	=10-	=10	=10-
!LO:TX:t=P:problem:kreska pseudotaktowa	!	!	!
!LO:LB:g=original	!	!	!
0r	.	2.cc\	e-
.	.	4dd\	.
.	.	4ee\	.
.	.	4ff\	.
.	.	1gg\	.
!	!	!LO:LB:g=original	!
=11	=11-	=11-	=11-
!	!	!LO:SIC:v:t=custos ff	!
0d	Ky-	.	.
.	.	4ff#X\	.
!	!	!LO:TX:t=P:problem:kreska pseudotaktowa	!
.	.	4ee\	.
.	.	1ff#	-lei-
=12-	=12-	=12-	=12-
1d	-ri-	1gg	-ſon
!LO:TX:t=P:problem:kreska pseudotaktowa	!	!LO:TX:t=P:problem:kreska pseudotaktowa	!
1B	-e	1dd	Ky-
=13	=13-	=13	=13-
2.c\	e-	1ee	-ri-
8d\L	-ley-	.	.
!LO:TX:t=P:problem:kreska pseudotaktowa	!	!	!
8c\J	.	.	.
!	!	!LO:TX:t=P:problem:kreska pseudotaktowa	!
4B\	.	1ee	-e
4A\	.	.	.
4G/	.	.	.
4F/	.	.	.
=14-	=14-	=14	=14-
2.A\	.	1.ff	e-
!LO:TX:t=P:problem:kreska pseudotaktowa	!	!	!
4B\	.	.	.
4c\	.	.	.
4d\	.	.	.
!LO:TX:t=P:problem:kreska pseudotaktowa	!	!LO:TX:t=P:problem:kreska pseudotaktowa	!
2e\	.	2ee\	.
=15	=15-	=15	=15-
2d\	.	2dd\	-lei-
!	!	!LO:TX:t=P:problem:kreska pseudotaktowa	!
1G	.	2dd\	ſon
.	.	1ee	Ky-
!LO:TX:t=P:problem:kreska pseudotaktowa	!	!	!
2G/	.	.	.
=16	=16-	=16-	=16-
2G/	.	2dd\	-ri-
!LO:TX:t=P:problem:kreska pseudotaktowa	!	!	!
2G/	.	1ee	-e
2.A\	.	.	.
!	!	!LO:TX:t=P:problem:kreska pseudotaktowa	!
.	.	2dd\	e-
!LO:TX:t=P:problem:kreska pseudotaktowa	!	!	!
4B\	.	.	.
=17	=17-	=17	=17-
4c\	.	2cc\	.
8B\L	.	.	.
8A\J	.	.	.
4G\	.	2b/	.
!LO:TX:t=P:problem:kreska pseudotaktowa	!	!	!
4B\	.	.	.
2c\	.	1a	-lei-
!LO:TX:t=P:problem:kreska pseudotaktowa	!	!	!
2d\	.	.	.
=18	=18-	=18-	=18-
!	!	!LO:TX:t=P:problem:kreska pseudotaktowa	!
2G,/	-ſon	0g	-ſon
!LO:TX:t=P:problem:kreska pseudotaktowa	!	!	!
2B\	Ky-	.	.
!LO:TX:t=P:problem:kreska pseudotaktowa	!	!	!
!LO:LB:g=original	!	!	!
1G	-ri-	.	.
=19	=19-	=19	=19-
!	!	!LO:TX:a:t=7	!
2G/	-e	0r	.
2B\	.	.	.
!LO:TX:t=P:problem:kreska pseudotaktowa	!	!	!
1c	e-	.	.
=20	=20-	=20	=20-
!LO:TX:t=P:problem:kreska pseudotaktowa	!	!	!
!LO:TX:a:t=g 2	!	!	!
0G	-ley-	0r	.
=21	=21-	=21-	=21-
2A\	.	0r	.
!LO:TX:t=P:problem:kreska pseudotaktowa	!	!	!
2B\	.	.	.
2c\	.	.	.
!LO:TX:t=P:problem:kreska pseudotaktowa	!	!	!
2G/	.	.	.
=22	=22-	=22-	=22-
!	!	!LO:TX:t=P:problem:brak taktu	!
2c\	.	0ryy	.
!LO:TX:b:t=a	!	!	!
1A	.	.	.
!LO:TX:t=P:problem:kreska pseudotaktowa	!	!	!
2c\	.	.	.
=23	=23-	=23-	=23-
!	!	!LO:TX:t=P:problem:kreska pseudotaktowa	!
!	!	!LO:SIC:v:t=custos dd	!
4A\	.	1r	.
4B\	.	.	.
4c\	.	.	.
8B\L	.	.	.
8c\J	.	.	.
!	!	!LO:LB:g=original	!
2B\	.	1dd	Ky-
!LO:TX:t=P:problem:kreska pseudotaktowa	!	!	!
2G/	.	.	.
=24	=24-	=24-	=24-
!	!	!LO:TX:t=P:problem:kreska pseudotaktowa	!
2G/	-son	1ee	-ri-
!LO:TX:t=P:problem:kreska pseudotaktowa	!	!	!
2r	.	.	.
00r	.	2dd\	-e
.	.	1ee\	e-
=25-	=25-	=25-	=25-
.	.	.	.
!	!	!LO:TX:t=P:problem:kreska pseudotaktowa	!
.	.	2dd\	.
.	.	2cc\	.
!	!	!LO:TX:t=P:problem:kreska pseudotaktowa	!
.	.	2b/	.
=26-	=26-	=26	=26-
.	.	1a	-lei-
!	!	!LO:TX:t=P:problem:kreska pseudotaktowa	!
2r	.	1g	-ſon
1G/	Ky-	.	.
=27-	=27-	=27	=27-
.	.	2r	.
!LO:TX:t=P:problem:kreska pseudotaktowa	!	!	!
2c\	-ri-	2.gg\	Ky-
2B\	-e	.	.
.	.	4ff\	.
1c\	e-	4ee\	-ri-
!	!	!LO:TX:t=P:problem:kreska pseudotaktowa	!
.	.	4dd\	.
=28-	=28-	=28	=28-
.	.	2cc\	-e
!LO:TX:t=P:problem:kreska pseudotaktowa	!	!LO:TX:t=P:problem:kreska pseudotaktowa	!
2G/	.	2dd\	.
1G	-ley-	2ee\	.
.	.	2ee\	e-
=29-	=29-	=29-	=29-
!	!	!LO:TX:t=P:problem:kreska pseudotaktowa	!
1F	.	0dd	-lei-
1A	.	.	.
=30-	=30-	=30	=30-
0G	-son	0b	-ſon
*	*	*	*Xij
!LO:LB:g=original	!	!LO:LB:g=original	!
=31||-	=31||-	=31||-	=31||-
*M2/1	*	*M2/1	*
*met(c|)	*	*met(c|)	*
1.E	Chri-	1.ee	CHri-
!LO:TX:t=P:problem:kreska pseudotaktowa	!	!LO:TX:t=P:problem:kreska pseudotaktowa	!
2F/	-ste	2ee\	-ſte
=32	=32-	=32	=32-
4G/	e-	2dd\	e-
4F/	.	.	.
!	!	!LO:TX:t=P:problem:kreska pseudotaktowa	!
4G/	.	2ee\	.
!LO:TX:t=P:problem:kreska pseudotaktowa	!	!	!
4E/	.	.	.
2A/	.	2cc\	.
!LO:TX:t=P:problem:kreska pseudotaktowa	!	!LO:TX:t=P:problem:kreska pseudotaktowa	!
2F/	.	2dd\	.
=33	=33-	=33	=33-
2E/	.	1ee	-lei-
2A/	-ley-	.	.
!LO:TX:t=P:problem:kreska pseudotaktowa	!	!LO:TX:t=P:problem:kreska pseudotaktowa	!
1G	-son	1dd	-ſon
=34	=34-	=34	=34-
00r	.	0r	.
=35-	=35-	=35-	=35-
.	.	0r	.
=36-	=36-	=36-	=36-
!	!	!LO:TX:t=P:problem:kreska pseudotaktowa	!
00r	.	1r	.
.	.	2r	.
*	*	*	*ij
.	.	1cc\	CHri-
=37-	=37-	=37-	=37-
.	.	.	.
!	!	!LO:TX:t=P:problem:kreska pseudotaktowa	!
.	.	2dd\	-ſte
.	.	2ee\	e-
!	!	!LO:TX:t=P:problem:kreska pseudotaktowa	!
.	.	2cc\	.
=38-	=38-	=38	=38-
2r	.	2dd\	.
!LO:TX:t=P:problem:kreska pseudotaktowa	!	!	!
2B\	e-	2ee\	.
!	!	!LO:TX:t=P:problem:kreska pseudotaktowa	!
1A	-ley-	1ff	.
=39-	=39-	=39	=39-
!LO:TX:t=P:problem:kreska pseudotaktowa	!	!	!
1c	-son	1.ee	-lei-
0r	.	.	.
.	.	4dd\	.
!	!	!LO:TX:t=P:problem:kreska pseudotaktowa	!
!	!	!LO:SIC:v:t=custos b	!
.	.	4cc\	.
!	!	!LO:LB:g=original	!
=40-	=40-	=40	=40-
.	.	2b/	-ſon
!	!	!LO:TX:t=P:problem:kreska pseudotaktowa	!
.	.	2ee\	CHri-
!LO:TX:t=P:problem:kreska pseudotaktowa	!	!	!
1r	.	2ff\	-ſte
!	!	!LO:TX:t=P:problem:kreska pseudotaktowa	!
.	.	2ee\	e-
=41	=41-	=41	=41-
2r	.	4dd\	.
.	.	4cc\	.
1A	Chr(i-	1cc	.
!LO:TX:t=P:problem:kreska pseudotaktowa	!	!LO:TX:t=P:problem:kreska pseudotaktowa	!
2B\	-st)e	2b/	-lei-
=42	=42-	=42	=42-
2c\	e-	2.cc\	-ſon
2A\	.	.	.
!	!	!LO:TX:t=P:problem:kreska pseudotaktowa	!
.	.	4a/	e-
!LO:SIC:v:s=2B-	!	!	!
2B\	.	2b-X/	.
!LO:TX:t=P:problem:kreska pseudotaktowa	!	!	!
2c\	.	1a/	.
=43	=43-	=43-	=43-
1d	.	.	.
!	!	!LO:TX:t=P:problem:kreska pseudotaktowa	!
.	.	2g/	lei-
2.c\	.	0a	-ſon
!LO:TX:t=P:problem:kreska pseudotaktowa	!	!	!
4B\	.	.	.
=44	=44-	=44-	=44-
!LO:LB:g=original	!	!LO:TX:t=P:problem:kreska pseudotaktowa	!
4A/	.	.	.
4G/	.	.	.
4F/	.	.	.
!LO:TX:t=P:problem:kreska pseudotaktowa	!	!	!
4A/	.	.	.
2G/	.	1r	.
1c\	.	.	.
=45-	=45-	=45-	=45-
.	.	1r	.
4G/	.	.	.
!LO:TX:t=P:problem:kreska pseudotaktowa	!	!	!
4A/	.	.	.
!	!	!LO:TX:t=P:problem:kreska pseudotaktowa	!
4B\	.	1r	.
4c\	.	.	.
4d\	.	.	.
4B\	-ley-	.	.
=46-	=46-	=46	=46-
!LO:TX:t=P:problem:kreska pseudotaktowa	!	!	!
1c	-son	2r	.
.	.	2ee\	CHri-
00r	.	1.ff	-ſte
=47-	=47-	=47-	=47-
.	.	.	.
!	!	!LO:TX:t=P:problem:kreska pseudotaktowa	!
.	.	2ee\	e-
!	!	!LO:TX:t=P:problem:kreska pseudotaktowa	!
.	.	1ee	-lei-
=48-	=48-	=48	=48-
.	.	2dd\	.
.	.	1dd	-ſon
0r	.	.	.
!	!	!LO:SIC:v:t=custos dd	!
.	.	2cc\	CHri-
!	!	!LO:LB:g=original	!
=49-	=49-	=49-	=49-
.	.	2dd\	-ſte
!	!	!LO:TX:t=P:problem:kreska pseudotaktowa	!
.	.	2.ee\	e-
!LO:TX:t=P:problem:kreska pseudotaktowa	!	!	!
1r	.	.	.
.	.	4dd\	.
.	.	1cc\	.
=50	=50-	=50-	=50-
2r	.	.	.
!LO:TX:t=P:problem:kreska pseudotaktowa	!	!	!
2G/	Chr(i-	2b/	-lei-
!	!	!LO:TX:t=P:problem:kreska pseudotaktowa	!
2E/	-st)e	1cc	-ſon
1c\	e-	.	.
=51-	=51-	=51	=51-
.	.	0r	.
4B\	.	.	.
!LO:TX:t=P:problem:kreska pseudotaktowa	!	!	!
4A\	.	.	.
4G/	-ley-	.	.
4A/	.	.	.
4B/	.	.	.
!LO:TX:t=P:problem:kreska pseudotaktowa	!	!	!
4G/	.	.	.
=52	=52-	=52-	=52-
2E/	.	0r	.
!LO:TX:t=P:problem:kreska pseudotaktowa	!	!	!
2A/	.	.	.
!LO:TX:t=P:problem:kreska pseudotaktowa	!	!	!
1G	.	.	.
=53	=53-	=53-	=53-
2A/	.	2r	.
!	!	!LO:TX:t=P:problem:kreska pseudotaktowa	!
2G/	.	2g/	CHri-
!LO:TX:a:t=g	!	!	!
1G	.	2b/	-ſte
.	.	2cc\	e-
=54-	=54-	=54-	=54-
2D/	.	1dd	-lei-
2A/	.	.	.
!LO:TX:t=P:problem:kreska pseudotaktowa	!	!LO:TX:t=P:problem:kreska pseudotaktowa	!
1G	-son	1b	-ſon
=55	=55-	=55	=55-
!LO:TX:t=P:problem:kreska pseudotaktowa	!	!	!
0r	.	1cc	CHri-
!	!	!LO:TX:t=P:problem:kreska pseudotaktowa	!
.	.	1dd	-ſte
=56	=56-	=56	=56-
!LO:LB:g=original	!	!	!
2r	.	2ee\	e-
!LO:TX:t=P:problem:kreska pseudotaktowa	!	!	!
2A/	Chr(i-	2cc\	-lei-
2G/	.	2dd\	.
!LO:TX:t=P:problem:kreska pseudotaktowa	!	!LO:TX:t=P:problem:kreska pseudotaktowa	!
2G/	-st)e	2.ee\	.
=57	=57-	=57	=57-
1A	e-	.	.
.	.	4dd\	.
.	.	1cc	.
1d	-ley-	.	.
.	.	2b/	.
=58-	=58-	=58-	=58-
!LO:SIC:v:n=1:s=0c;;:n=2:s=0A	!	!	!
0d;; 0B	-son	0cc	-ſon
*	*	*	*Xij
!	!	!LO:LB:g=original	!
=59||-	=59||-	=59||-	=59||-
*M2/1	*	*M2/1	*
*met(c|)	*	*met(c|)	*
1.B	Ky-	1r	.
.	.	1.dd	Ky-
!LO:TX:t=P:problem:kreska pseudotaktowa	!	!	!
2A\	-ri-	.	.
=60	=60-	=60-	=60-
2B\	-e	.	.
!	!	!LO:TX:t=P:problem:kreska pseudotaktowa	!
2G/	e-	2cc\	-ri-
1.c	-ley-	2dd\	-e
!	!	!LO:TX:t=P:problem:kreska pseudotaktowa	!
.	.	2b/	e-
=61-	=61-	=61	=61-
.	.	2cc\	-lei-
4B\	.	2.dd\	.
!LO:TX:t=P:problem:kreska pseudotaktowa	!	!	!
4A\	.	.	.
2G/	.	.	.
.	.	4b/	.
!LO:TX:t=P:problem:kreska pseudotaktowa	!	!LO:TX:t=P:problem:kreska pseudotaktowa	!
2c\	.	2ee\	-ſon
=62	=62-	=62	=62-
*	*	*	*ij
2.B\	.	2.dd\	Ky-
4A\	.	4cc\	-ri-
2G/	.	2b/	-e
!	!	!LO:TX:t=P:problem:kreska pseudotaktowa	!
2.A/	.	2.cc\	e-
=63-	=63-	=63	=63-
.	.	.	.
4G/	.	4b/	.
!	!	!LO:TX:t=P:problem:kreska pseudotaktowa	!
4F/	.	2g/	.
!LO:TX:t=P:problem:kreska pseudotaktowa	!	!	!
4E/	.	.	.
!LO:LB:g=original	!	!	!
1D	.	1a	-lei-
=64-	=64-	=64-	=64-
!LO:TX:t=P:problem:kreska pseudotaktowa	!	!	!
1G	-son	4g/	-ſon
*	*	*	*Xij
.	.	4a/	.
.	.	4b/	.
!	!	!LO:TX:t=P:problem:kreska pseudotaktowa	!
.	.	4cc/	.
!	!	!LO:TX:t=P:problem:kreska pseudotaktowa	!
!LO:TX:a:t=1	!	!LO:SIC:v:t=custos dd	!
1r	.	1dd	.
!	!	!LO:PB:g=original	!
=65-	=65-	=65	=65-
!	!	!LO:TX:t=P:problem:kreska pseudotaktowa	!
2r	.	1r	.
!LO:TX:t=P:problem:kreska pseudotaktowa	!	!	!
2B\	Ky-	.	.
2A/	-rie	1dd	ky-
!LO:TX:t=P:problem:kreska pseudotaktowa	!	!	!
2G/	e-	.	.
=66	=66-	=66-	=66-
1A	-ley-	2ee\	-ri-
.	.	1ff	-e
!LO:TX:t=P:problem:kreska pseudotaktowa	!	!	!
1A	-son	.	.
!	!	!LO:TX:t=P:problem:kreska pseudotaktowa	!
.	.	2.ee\	e-
=67	=67-	=67	=67-
00r	.	.	.
.	.	4dd\	.
.	.	1dd	.
.	.	2cc\	-ley-
=68-	=68-	=68-	=68-
!LO:TX:t=P:problem:kreska pseudotaktowa	!	!LO:TX:t=P:problem:kreska pseudotaktowa	!
.	.	0dd	-son
=69	=69-	=69	=69-
2r	.	2r	.
*	*	*	*ij
(>1G	Ky-	1b	ky-
!LO:TX:t=P:problem:kreska pseudotaktowa	!	!	!
!LO:TX:a:t=d	!	!LO:TX:t=P:problem:kreska pseudotaktowa	!
2D/)	-ri-	2a/	-ri-
=70	=70-	=70	=70-
2G/	-e	2b/	-e
2E/	.	2cc\	e-
2D/	.	2dd\	.
!LO:TX:t=P:problem:kreska pseudotaktowa	!	!LO:TX:t=P:problem:kreska pseudotaktowa	!
2G/	.	2.ee\	.
=71	=71-	=71	=71-
2c\	.	.	.
.	.	4dd\	.
!LO:TX:t=P:problem:kreska pseudotaktowa	!	!LO:SIC:v:t=custos cc	!
2G/	.	1dd	.
2c\	.	.	.
!	!	!LO:LB:g=original	!
!	!	!LO:TX:t=P:problem:kreska pseudotaktowa	!
2B\	e-	2cc\	-ley-
=72-	=72-	=72	=72-
1A	-ley-	0.dd	-son
!LO:TX:t=P:problem:kreska pseudotaktowa	!	!	!
1B	-son	.	.
=73	=73-	=73-	=73-
!	!	!LO:TX:t=P:problem:kreska pseudotaktowa	!
00r	.	.	.
.	.	1r	.
=74-	=74-	=74-	=74-
.	.	2r	.
.	.	1b	ky-
!	!	!LO:TX:t=P:problem:kreska pseudotaktowa	!
.	.	2a/	-ri-
=75-	=75-	=75	=75-
!LO:TX:t=P:problem:kreska pseudotaktowa	!	!	!
1r	.	2b/	-e
.	.	2cc\	.
!	!	!LO:TX:t=P:problem:kreska pseudotaktowa	!
2r	.	1dd	e-
!LO:TX:t=P:problem:kreska pseudotaktowa	!	!	!
2d\	Ky-	.	.
!LO:LB:g=original	!	!	!
=76	=76-	=76	=76-
2c\	-rye	2.ee\	-ley-
4c\	.	.	.
4d\	.	4ff\	.
!	!	!LO:TX:t=P:problem:kreska pseudotaktowa	!
2e\	e-	1gg	-son
!LO:TX:t=P:problem:kreska pseudotaktowa	!	!	!
2d\	.	.	.
=77	=77-	=77	=77-
1c	.	0r	.
2B\	.	.	.
2G/	.	.	.
=78-	=78-	=78-	=78-
2c\	.	1r	.
!LO:TX:t=P:problem:kreska pseudotaktowa	!	!	!
2d\	.	.	.
2c\	.	2r	.
2A/	-ley-	1cc\	ky-
=79-	=79-	=79-	=79-
!LO:TX:t=P:problem:kreska pseudotaktowa	!	!	!
1B	-son	.	.
!	!	!LO:TX:t=P:problem:kreska pseudotaktowa	!
.	.	2b/	-ri-
00r	.	2cc\	-e
!	!	!LO:TX:t=P:problem:kreska pseudotaktowa	!
.	.	2a/	.
=80-	=80-	=80	=80-
.	.	2b/	.
.	.	1cc	e-
!	!	!LO:TX:t=P:problem:kreska pseudotaktowa	!
.	.	2b/	.
=81-	=81-	=81	=81-
!	!	!LO:LB:g=original	!
.	.	1a	-ley-
2r	.	4g/	.
.	.	4a/	.
1B\	Ky-	4b/	.
.	.	4cc\	.
=82-	=82-	=82-	=82-
!	!	!LO:TX:t=P:problem:kreska pseudotaktowa	!
.	.	1dd	-son
!LO:TX:t=P:problem:kreska pseudotaktowa	!	!	!
2A\	-ri-	.	.
2B\	-e	1r	.
2G/	.	.	.
=83-	=83-	=83-	=83-
2F/	.	2r	.
1c	e-	1b	ky-
!LO:TX:t=P:problem:kreska pseudotaktowa	!	!LO:TX:t=P:problem:kreska pseudotaktowa	!
2F/	-ley-	2a/	-ri-
=84	=84-	=84	=84-
4B\	.	2b/	-e
4A\	.	.	.
4G\	.	2cc\	e-
!LO:TX:t=P:problem:kreska pseudotaktowa	!	!	!
4F/	.	.	.
2F/	.	1dd	-ley-
2A/	.	.	.
=85-	=85-	=85-	=85-
!LO:N:vis=00	!	!	!
0G	-son	0b	-son
*	*	*	*Xij
==	==	==	==
*-	*-	*-	*-
!!!system-decoration: [(s1,s2)]
!!!ENC: Kamil Watkowski
!!!END: 2021-07-09
!!!RDF**kern: > = above
!!!RDF**kern: < = below
